!!!!SEGMENT: pl-wn--mus-iii-110-038-cim--001-005_brzowska-jadwiga--le-diane-contredanses-composees-pour-le-piano-fig-5.krn
!!!cenid: 18xx:4439
!!!COM: Brzowska, Jadwiga
!!!COM-rismID: pe50052590
!!!CDT: 1830-1886
!!!CNT: Polish
!!!GTL: Le Diane: Contredanses composées pour le piano
!!!OTL: Fig. 5
!!!OMV: 005
!!!PDT: 1848
!!!AGN: Secular; Contradance
!!!YEC: Copyright 2022 Narodowy Instytut Fryderyka Chopina (https://polishscores.org)
!!!YEM: License CC-BY-4.0 (https://creativecommons.org/licenses/by/4.0)
!!!SMS-siglum: PL-Wn
!!!SMS-shelfmark: Mus.III.110.038 Cim.
!!!SMS-shelfwork: 001-005 G
!!!SMS-variant:
!!!SMS-altvar:
!!!NIFC-rismSourceID:
!!!NIFC-rismChildID:
!!!NIFC-islandoraID: none
!!!URL-pdf-islandora:
!!!URL-scan: https://polona.pl/item-view/59c5dde7-d015-4f2b-b38f-cb13e1316317?page=6
!!!IIIF:
!!!ONB-nifc: UWAGA: Fig. 5 na str. 6
!!!AIN: 2 piano
!!!key: B-
!!!filter-modern: sic -sq | shed -k -e "s/[<>]//g" | shed -k -e "s/:TUP:/:tup:/L" | shed -e "s/LO:HP:(a|b|rj)/LO:hp:$1/L" | shed -k -e "s/LO:N:vis/LO:n:vis:/L" | shed -e "s/:rj/:RJ/L" | shed -e "s/^(\d+[\/\\]right)/$1yy/I;s/^(\d+[\/\\]left)/$1yy/I" | shed -e "s/LO:DY:(a|b|rj)/LO:dy:$1/L" | shed -e "s/-//B" | modori -m | tie -s | autostem -r | humtr -p
**kern	**kern	**dynam
*part2	*part1	*part1
*staff2	*staff1	*
*mI"Pianoforte	*mI"Pianoforte	*
*I"Piano	*I"Piano	*
*I'	*I'	*
*mI'pf	*mI'pf	*
*Ipiano	*Ipiano	*
*ICklav	*ICklav	*
*>[A,A,B,B,C,A]	*>[A,A,B,B,C,A]	*>[A,A,B,B,C,A]
*>A	*>A	*>A
*clefF4	*clefG2	*
*k[b-e-]	*k[b-e-]	*
*B-:	*B-:	*
*M6/8	*M6/8	*
=1!|:	=1!|:	=1!|:
8B-L 8BB-\	[4.ddd [>4.dd\	.
8d 8B- 8F\	.	.
8dJ 8B- 8F\	.	.
8d 8B- 8F\	8ddd]L 8dd\]	.
8r	8fff 8ff\	.
8r	8bb-J 8b-\	.
=2	=2	=2
8B-L 8BB-\	[4.ddd [>4.dd\	.
8d 8B- 8F\	.	.
8dJ 8B- 8F\	.	.
8d 8B- 8F\	8ddd]L 8dd\]	.
8r	8ccc 8cc\	.
8r	8bb-J 8b-\	.
=3	=3	=3
!	!	!LO:HP:a
8B-L 8BB-\	4eee- 4ee-\	<
8e- 8B- 8G\	.	.
8e-J 8B- 8G\	8eee- 8ee-\	.
8e- 8B- 8G\	8gggL 8gg\	.
8r	8fff 8ff\	.
8r	8eee-J 8ee-\	.
=4	=4	=4
8B-L 8BB-\	4.bbb- 4.bb-\	.
!LO:SIC:v:s=8e 8c# 8B- 8G	!	!
8e- 8c#X 8B- 8G\	.	.
!LO:SIC:v:s=8e 8c# 8B- 8GJ	!	!
8e-J 8c# 8B- 8G\	.	.
!LO:SIC:v:s=4.f .4.d 4.B- 4.F	!	!
4.f 4.d 4.B- 4.G\	4.fff 4.ff\	[[
!!LO:LB:g=original
=5	=5	=5
8B-L 8BB-\	[4.ddd [>4.dd\	.
8d 8B- 8F\	.	.
8dJ 8B- 8F\	.	.
8f 8d 8B-\	8ddd]L 8dd\]	.
8r	8fff 8ff\	.
8r	8bb-J 8b-\	.
=6	=6	=6
8B-L 8BB-\	[4.ddd [>4.dd\	.
8d 8B- 8F\	.	.
8dJ 8B- 8F\	.	.
8f 8d 8B-\	8ddd]L 8dd\]	.
8r	8ccc 8cc\	.
8r	8bb-J 8b-\	.
=7	=7	=7
4.F 4.FF\	8aaL 8a\	.
.	8ggg 8gg\	.
.	8fffJ 8ff\	.
4.f 4.e- 4.A\	8eee-L 8ee-\	.
.	8gg 8g\	.
.	8aaJ 8a\	.
=8	=8	=8
4.f 4.d 4.B-\	4.bb- 4.b-\	.
4r	4r	.
!	!LO:TX:b:B:t=FINE:mod=	!
8r	8g/	.
!!LO:TX:a:B:rj:t=:mod=Fine
!!LO:LB:g=original
==9	==9	==9
*>B	*>B	*>B
!	!LO:TX:a:i:t=veloce	!
4e- 4B- 4G 4E-\	4gg 4ee-\	.
8e- 8B- 8G 8E-\	8g/	.
4d 4B- 4A-X 4E-\	4aa-X 4dd\	.
8d 8B- 8A- 8E-\	8a-X/	.
=10	=10	=10
4e- 4c 4An 4E-\	8aanL 8cc\	.
.	8an\J	.
8e- 8c 8A 8E-\	8ccc 8ee-\	.
4e- 4B- 4G 4E-\	4bb- 4gg 4ee- 4b-\	.
8e- 8B- 8G 8E-\	8b-/	.
=11	=11	=11
4B- 4BB-\	4gg 4b-\	.
!	!LO:SIC:v:s=8ff 8a-	!
8d 8B- 8A-X 8F\	8ff 8a\	.
4d 4B- 4A- 4F\	4cc 4a-X\	.
8d 8B- 8A- 8F\	8dd 8b-\	.
=12	=12	=12
4E-\	4ff 4g\	.
8e- 8B- 8G\	8ee- 8g\	.
4e- 4B- 4G\	4b- 4g\	.
8e- 8B- 8G\	8g/	.
!!LO:LB:g=original
=13	=13	=13
4e- 4B- 4G 4E-\	4gg 4ee-\	.
8e- 8B- 8G 8E-\	8g/	.
4d 4B- 4A-X 4E-\	4aa-X 4dd\	.
8d 8B- 8A- 8E-\	8a-X/	.
=14	=14	=14
4e- 4c 4An 4E-\	8aanL 8cc\	.
.	8an\J	.
8e- 8c 8A 8E-\	8eee- 8ee-\	.
4e- 4B- 4G 4E-\	4bb- 4gg 4ee- 4b-\	.
8e- 8B- 8G 8E-\	8b-\	.
=15	=15	=15
4B- 4BB-\	4gg 4b-\	.
8d 8B- 8A-X 8F\	8ff 8a-X\	.
4d 4B- 4A- 4F\	4aa-X 4cc\	.
8d 8B- 8A- 8F\	8gg 8b-\	.
=16	=16	=16
[4.e- [4.B- [>4.G [>4.E-\	[4.ee- [>4.g\	.
4e-] 4B-] 4G] 4E-\]	4ee-] 4g\]	.
8r	8cc\	.
!!LO:LB:g=original
=17:|!	=17:|!	=17:|!
*>C	*>C	*>C
!	!LO:MO:mod=!LO&colon;TX&colon;a&colon;i&colon;t=dolce	!
!	!LO:TX:b:i:t=dolce	!
8F 8FF\	4aa\	.
8r	.	.
8A 8F 8C\	8gg\	.
8c 8A 8F\	4ff\	.
8r	.	.
8f 8c 8A\	8ee-\	.
=18	=18	=18
8F 8FF\	4ee-\	.
8r	.	.
8B- 8F 8D\	8dd\	.
8d 8B- 8F\	8dd\L	.
8r	8ee-\	.
8f 8d 8B-\	8ff\J	.
=19	=19	=19
8C 8CC/	4gg\	.
8r	.	.
!LO:SIC:v:s=8B- 8E 8C	!	!
8B- 8E- 8C\	8gg\	.
!LO:SIC:v:s=8c 8B- 8E	!	!
8c 8B- 8E-\	4aa\	.
8r	.	.
!LO:SIC:v:s=8e 8c 8B-	!	!
8e- 8c 8B-\	8gg\	.
=20	=20	=20
8F 8FF\	8gg\L	.
8r	8ff\	.
8A 8F 8C\	8dd\J	.
8c 8A 8F\	4cc\	.
4r	.	.
.	8ccc 8cc\	.
!!LO:LB:g=original
=21	=21	=21
8F 8FF\	4aaa 4aa\	.
8r	.	.
8A 8F 8C\	8ggg 8gg\	.
8c 8A 8F\	4fff 4ff\	.
8r	.	.
8f 8c 8A\	8eee- 8ee-\	.
=22	=22	=22
8F 8FF\	4eee- 4ee-\	.
8r	.	.
8B- 8F 8D\	8ddd 8dd\	.
8d 8B- 8F\	8dddL 8dd\	.
8r	8eee- 8ee-\	.
8f 8d 8B-\	8fffJ 8ff\	.
=23	=23	=23
*	*8va	*
8C 8CC/	8gggL 8gg\	.
8r	8fff#X 8ff#X\	.
!LO:SIC:v:s=8B- 8E 8C	!	!
8B- 8E- 8C\	8gggJ 8gg\	.
!LO:SIC:v:s=8c 8B- 8E	!	!
8c 8B- 8E-\	8dddd 8ddd\	.
8r	8r	.
!LO:SIC:v:s=8e 8c 8B-	!	!
8e- 8c 8B-\	8cccc 8ccc\	.
*	*X8va	*
=24	=24	=24
!	!LO:TX:a:i:rj:t=loco:mod=	!
[4.f [4.c [>4.A [>4.F\	[4.fff [>4.ff\	.
!LO:TX:b:i:t=D.C. al fine.:mod=	!	!
4.f] 4.c] 4.A] 4.F\]	4.fff] 4.ff\]	.
!!LO:TX:a:B:t=:mod=Da Capo al Fine
==	==	==
*-	*-	*-
!!!system-decoration: {(*)}
!!!RDF**kern: > = above
!!!ENC: Andrzej Gręziak
!!!END: 2023-07-25
!!!ENC: Marta Lawrence
!!!END: 2023-07-26
!!!ENC-modern: Andrzej Borzym
!!!END-modern: 2023-07-28
